Numix-GalliumOS/scalable/actions/system-shutdown-symbolic.svg

<svg width="16" xmlns="http://www.w3.org/2000/svg" viewBox="0 0 16 16.0243" height="16.0243" xmlns:xlink="http://www.w3.org/1999/xlink">
<defs/>
<g style="fill:#bebebe">
<path style="line-height:normal;color:#000" d="M 5.5 0.375 C 2.2983821 1.4340727 1.1248223e-15 4.4774601 0 8 C 0 12.389595 3.5803783 16.03125 8 16.03125 C 12.419622 16.03125 16 12.389595 16 8 C 16 4.4780121 13.700976 1.4346302 10.5 0.375 L 10.5 2.53125 C 12.541964 3.493202 14 5.5609693 14 8 C 14 11.367034 11.30958 14.0625 8 14.0625 C 4.6904203 14.0625 2 11.367034 2 8 C 2 5.5408408 3.4437776 3.4523957 5.5 2.5 L 5.5 0.375 z "/>
<rect width="2" x="-9" y=".024" rx=".837" ry="0" height="8" transform="scale(-1 1)"/>
</g>
</svg>

<svg xmlns="http://www.w3.org/2000/svg" viewBox="0 0 16 16.0243" height="16.02">
 <g style="fill:#bebebe">
  <path d="m 5.5 0.375 c -3.202 1.059 -5.5 4.102 -5.5 7.625 c 0 4.39 3.58 8.03 8 8.03 c 4.42 0 8 -3.642 8 -8.03 c 0 -3.522 -2.299 -6.565 -5.5 -7.625 l 0 2.156 c 2.042 0.962 3.5 3.03 3.5 5.469 c 0 3.367 -2.69 6.06 -6 6.06 c -3.31 0 -6 -2.695 -6 -6.06 c 0 -2.459 1.444 -4.548 3.5 -5.5 l 0 -2.125 z" style="color:#000"/>
  <rect width="2" x="-9" y="0.024" rx="0.837" ry="0" height="8" transform="scale(-1 1)"/>
 </g>
</svg>
